svgs/themed_icon_calendar_4.svg

<svg xmlns="http://www.w3.org/2000/svg" width="24" height="24" viewBox="0 0 240 240"><path d="M24.987 167.27q-.005-62.87-.004-125.737c0-10.301 6.192-16.539 16.418-16.539q62.99-.002 125.981.006c.932 0 1.864.09 2.796.138l.033 44.798a.32.32 0 0 1-.199.238c-.849-.069-1.698-.199-2.547-.199-31.537-.01-63.073.022-94.61-.068-2.445-.007-2.952.701-2.946 3.02Q69.985 104.46 70 170q-30.945.059-44.933.074c-.028-.935-.08-1.87-.08-2.804Zm45.005 2.744 99.918-.038a.55.55 0 0 0 .21.164l-.043 44.512c-.755.622-1.65.319-2.475.319q-32.511.026-97.602.029z" stroke="#000" fill-opacity=".5"/><path d="M214.821 70.036c.052.853.148 1.706.149 2.559.008 31.675.009 63.349-.008 95.023 0 .827.291 1.722-.328 2.479l-44.514.043a.56.56 0 0 1-.21-.163c.04-.543.114-1.086.114-1.628 0-32.725-.007-65.45-.012-98.175a.31.31 0 0 0 .199-.238c.854.025 1.709.071 2.564.072q21.023.018 42.046.028" stroke="#000" fill-opacity=".5"/><path d="M214.821 70.036q-21.023-.01-42.046-.028c-.855-.001-1.71-.047-2.564-.072l-.033-44.799c10.148-.033 20.307-.345 30.443-.014 8.544.279 14.342 6.853 14.366 15.415.027 9.137.01 18.273-.001 27.41-.001.696-.108 1.392-.165 2.088M170.12 170.14l44.514-.043c-.282.36-.529.754-.85 1.075a77872 77872 0 0 1-42.629 42.626c-.322.321-.716.57-1.077.854l.042-44.512M25 170h45v45H40c-8.284 0-15-6.716-15-15z" stroke="#00000000"/><path fill="#FF1C1C1E" d="M124.213 138.355V150h9.094v-11.645h7.395v-8.5h-7.395V91.86h-9.944l-26.521 39.355v7.14zm0-8.5h-17.085l16.574-24.48h.511z" stroke="#00000000"/></svg>

<svg
    xmlns="http://www.w3.org/2000/svg"
    width="24"
    height="24"
    viewBox="0 0 240 240">
    <path
        fill="#000000"
        d="M24.987,167.27C24.983,125.357 24.983,83.445 24.983,41.533C24.983,31.232 31.175,24.994 41.401,24.994C83.395,24.994 125.388,24.994 167.382,25C168.314,25 169.246,25.09 170.178,25.138C170.189,40.07 170.2,55.003 170.211,69.936C170.186,70.05 170.12,70.13 170.012,70.174C169.163,70.105 168.314,69.975 167.465,69.975C135.928,69.965 104.392,69.997 72.855,69.907C70.41,69.9 69.903,70.608 69.909,72.927C69.96,93.949 69.99,126.307 70,170C49.37,170.039 34.392,170.064 25.067,170.074C25.039,169.139 24.987,168.204 24.987,167.27Z"
        stroke="#000000"
        stroke-width="1.0"
        fill-opacity="0.5"
        fill-rule="nonzero"/>
    <path
        fill="#000000"
        d="M69.992,170.014C114.669,169.998 147.975,169.985 169.91,169.976C169.967,170.048 170.036,170.102 170.12,170.14C170.106,184.977 170.092,199.815 170.077,214.652C169.322,215.274 168.427,214.971 167.602,214.971C145.928,214.989 113.394,214.998 70,215L69.992,170.014Z"
        stroke="#000000"
        stroke-width="1.0"
        fill-opacity="0.5"
        fill-rule="nonzero"/>
    <path
        fill="#000000"
        d="M214.821,70.036C214.873,70.889 214.969,71.742 214.97,72.595C214.978,104.27 214.979,135.944 214.962,167.618C214.962,168.445 215.253,169.34 214.634,170.097C199.796,170.112 184.958,170.126 170.12,170.14C170.036,170.102 169.967,170.048 169.91,169.977C169.95,169.434 170.024,168.891 170.024,168.349C170.024,135.624 170.017,102.899 170.012,70.174C170.12,70.13 170.186,70.051 170.211,69.936C171.065,69.961 171.92,70.007 172.775,70.008C186.79,70.021 200.806,70.028 214.821,70.036"
        stroke="#000000"
        stroke-width="1.0"
        fill-opacity="0.5"
        fill-rule="nonzero"/>
    <path
        fill="#000000"
        d="M214.821,70.036C200.806,70.028 186.79,70.021 172.775,70.008C171.92,70.007 171.065,69.961 170.211,69.936C170.2,55.003 170.189,40.07 170.178,25.137C180.326,25.104 190.485,24.792 200.621,25.123C209.165,25.402 214.963,31.976 214.987,40.538C215.014,49.675 214.997,58.811 214.986,67.948C214.985,68.644 214.878,69.34 214.821,70.036"
        stroke="#00000000"
        stroke-width="1.0"
        fill-rule="nonzero"/>
    <path
        fill="#000000"
        d="M170.12,170.14C184.958,170.126 199.796,170.111 214.634,170.097C214.352,170.457 214.105,170.851 213.784,171.172C199.58,185.386 185.37,199.595 171.155,213.798C170.833,214.119 170.439,214.368 170.078,214.652C170.091,199.815 170.106,184.977 170.12,170.14"
        stroke="#00000000"
        stroke-width="1.0"
        fill-rule="nonzero"/>
    <path
        fill="#000000"
        d="M25,170L70,170L70,215L40,215C31.716,215 25,208.284 25,200L25,170L25,170Z"
        stroke="#00000000"
        stroke-width="1.0"
        fill-rule="nonzero"/>
    <path
        fill="#FF1C1C1E"
        d="M124.213,138.355L124.213,150L133.307,150L133.307,138.355L140.702,138.355L140.702,129.855L133.307,129.855L133.307,91.86L123.363,91.86L96.842,131.215L96.842,138.355L124.213,138.355ZM124.213,129.855L107.128,129.855L123.702,105.375L124.213,105.375L124.213,129.855Z"
        stroke="#00000000"
        stroke-width="1.0"
        fill-rule="nonzero"/>
</svg>
